logos/tv.cbsreality.svg

<?xml version="1.0" encoding="UTF-8" standalone="no"?>
<!-- Created with Inkscape (http://www.inkscape.org/) -->

<svg
   xmlns:dc="http://purl.org/dc/elements/1.1/"
   xmlns:cc="http://creativecommons.org/ns#"
   xmlns:rdf="http://www.w3.org/1999/02/22-rdf-syntax-ns#"
   xmlns:svg="http://www.w3.org/2000/svg"
   xmlns="http://www.w3.org/2000/svg"
   xmlns:inkscape="http://www.inkscape.org/namespaces/inkscape"
   version="1.0"
   width="800"
   height="170"
   id="svg2">
  <metadata
     id="metadata20">
    <rdf:RDF>
      <cc:Work
         rdf:about="">
        <dc:format>image/svg+xml</dc:format>
        <dc:type
           rdf:resource="http://purl.org/dc/dcmitype/StillImage" />
      </cc:Work>
    </rdf:RDF>
  </metadata>
  <defs
     id="defs18" />
  <g
     transform="translate(-328.07792,-334.09632)"
     id="layer1">
    <path
       d="m 329.71,489.527 c -1.691,-0.01 -3.068,-1.122 -3.799,-2.463 0.738,-1.329 2.12,-2.41 3.799,-2.41 1.71,0 3.078,1.072 3.799,2.41 -0.72,1.341 -2.077,2.47 -3.799,2.463 m 0,-6.574 c -2.275,0 -4.121,1.855 -4.121,4.143 0,2.285 1.846,4.138 4.121,4.138 2.277,0 4.123,-1.853 4.123,-4.138 0,-2.288 -1.845,-4.143 -4.123,-4.143"
       inkscape:connector-curvature="0"
       transform="matrix(11.28893,0,0,11.28893,-3115.2715,-5077.9296)"
       id="path1179"
       style="fill:#ff6100" />
    <path
       d="m 329.71,489.289 c 1.207,0 2.186,-0.984 2.186,-2.193 0,-1.213 -0.979,-2.197 -2.186,-2.197 -1.205,0 -2.186,0.984 -2.186,2.197 10e-4,1.208 0.981,2.193 2.186,2.193"
       inkscape:connector-curvature="0"
       transform="matrix(11.28893,0,0,11.28893,-3115.2715,-5077.9296)"
       id="path1181"
       style="fill:#ff6100" />
    <path
       d="m 311.968,482.97 3.75,0 c 1.591,0 2.703,0.98 2.703,1.983 0,0.751 -0.284,1.459 -1.856,1.803 0.606,0.082 2.259,0.526 2.259,2.105 0,1.582 -1.733,2.35 -2.923,2.35 l -3.933,0 0,-0.081 3.893,0 c 0.927,0 1.516,-0.384 1.516,-2.147 0,-1.762 -0.647,-2.165 -1.456,-2.186 l -1.209,0 0,-0.082 1.279,0 c 0.525,0 1.079,-0.08 1.079,-1.782 0,-1.7 -0.667,-1.882 -1.37,-1.882 l -0.988,0 0,8.079 -1.492,0 0,-8.079 -1.251,0 0,-0.081 -10e-4,0 z"
       inkscape:connector-curvature="0"
       transform="matrix(11.28893,0,0,11.28893,-3115.2715,-5077.9296)"
       id="path1183"
       style="fill:#ff6100" />
    <path
       d="m 306.673,487.144 c 0,-3.119 0.905,-4.235 1.977,-4.235 1.513,0 2.339,2.249 2.6,3.12 l 0,-3.019 c -0.261,0.203 -0.381,0.303 -0.666,0.303 -0.282,0 -0.706,-0.142 -0.906,-0.262 -0.202,-0.121 -0.604,-0.224 -1.008,-0.224 -1.329,0 -3.65,1.762 -3.65,4.316 0,3.018 2.056,4.313 3.65,4.313 0.404,0 0.845,-0.162 1.049,-0.284 0.2,-0.121 0.583,-0.283 0.865,-0.283 0.285,0 0.405,0.103 0.666,0.304 l 0,-3.037 c -0.223,1.175 -1.087,3.22 -2.6,3.22 -0.435,0 -1.031,-0.203 -1.303,-0.486 -0.081,-0.089 -0.674,-0.51 -0.674,-3.746"
       inkscape:connector-curvature="0"
       transform="matrix(11.28893,0,0,11.28893,-3115.2715,-5077.9296)"
       id="path1185"
       style="fill:#ff6100" />
    <path
       d="m 324.199,489.591 c -0.021,0.667 -0.529,1.56 -1.574,1.537 -1.049,-0.021 -2.32,-0.808 -2.804,-2.935 l 0,2.876 c 0.201,-0.185 0.546,-0.507 1.09,-0.266 0.543,0.243 1.351,0.405 1.714,0.405 0.361,0 2.359,-0.384 2.44,-2.693 0.018,-1.155 -0.808,-1.741 -1.31,-1.924 -0.587,-0.222 -1.413,-0.483 -1.896,-0.649 -0.483,-0.158 -1.271,-0.666 -1.252,-1.6 0.021,-0.929 0.586,-1.435 1.354,-1.435 0.764,0 1.795,0.604 2.317,2.752 l 0,-2.855 c -0.3,0.265 -0.541,0.385 -0.726,0.385 -0.16,0 -0.629,-0.185 -0.866,-0.257 -0.264,-0.079 -0.521,-0.113 -0.849,-0.107 -0.574,0.008 -1.925,0.709 -2.017,2.592 -0.065,1.379 0.949,1.904 1.411,2.065 0.403,0.143 1.576,0.567 1.919,0.711 0.342,0.142 1.088,0.626 1.049,1.398"
       inkscape:connector-curvature="0"
       transform="matrix(11.28893,0,0,11.28893,-3115.2715,-5077.9296)"
       id="path1187"
       style="fill:#ff6100" />
    <path
       d="m 342.135,485.971 3.044,0 c -0.288,-0.774 -0.705,-1.142 -1.463,-1.142 -0.821,10e-4 -1.28,0.395 -1.581,1.142 m 1.608,-3.188 c 2.312,0 3.944,1.535 3.944,4.408 0,0.197 0.013,0.302 0,0.486 l -5.643,0 c 0.209,0.958 0.967,1.416 1.881,1.416 0.796,0 1.319,-0.563 1.736,-1.115 0,0 1.45,0.84 1.895,1.115 -0.705,1.26 -2.063,2.1 -3.748,2.1 -2.47,0 -4.168,-1.509 -4.168,-4.212 0,-2.44 1.738,-4.198 4.103,-4.198"
       inkscape:connector-curvature="0"
       transform="matrix(11.28893,0,0,11.28893,-3115.2715,-5077.9296)"
       id="path1189"
       style="fill:#ffb900" />
    <path
       d="m 350.353,486.968 c 0,1.115 0.705,2.033 1.829,2.033 1.084,0 1.984,-0.8 1.984,-1.968 0,-1.181 -0.835,-1.994 -1.908,-1.994 -1.16,0.001 -1.905,0.866 -1.905,1.929 m 1.423,-4.185 c 0.979,0 1.594,0.328 2.312,0.984 l 0,-0.827 2.405,0 0,8.056 -2.442,0 0,-0.787 c 0,0 -0.876,0.984 -2.403,0.984 -2.235,0 -3.764,-1.601 -3.764,-4.185 -0.001,-2.244 1.658,-4.225 3.892,-4.225"
       inkscape:connector-curvature="0"
       transform="matrix(11.28893,0,0,11.28893,-3115.2715,-5077.9296)"
       id="path1191"
       style="fill:#ffb900" />
    <rect
       width="27.4321"
       height="113.47633"
       x="917.25812"
       y="351.43613"
       id="rect1193"
       style="fill:#ffb900" />
    <path
       d="m 360.49,482.941 2.429,0 0,8.057 -2.429,0 0,-8.057 z m 1.228,-3.531 c 0.81,0 1.477,0.645 1.477,1.457 0,0.827 -0.667,1.495 -1.503,1.495 -0.797,0 -1.438,-0.642 -1.438,-1.469 -0.001,-0.813 0.655,-1.483 1.464,-1.483"
       inkscape:connector-curvature="0"
       transform="matrix(11.28893,0,0,11.28893,-3115.2715,-5077.9296)"
       id="path1203"
       style="fill:#ffb900" />
    <polygon
       points="364.163,485.158 363.365,485.158 363.365,482.94 364.163,482.94 364.163,480.946 366.605,480.946 366.605,482.94 367.898,482.94 367.898,485.171 366.605,485.171 366.605,490.997 364.163,490.997 364.163,490.997 "
       transform="matrix(11.28893,0,0,11.28893,-3115.2715,-5077.9296)"
       id="polygon1205"
       style="fill:#ffb900" />
    <path
       d="m 373.508,482.914 0,4.684 c 0,0.814 -0.483,1.326 -1.358,1.326 -0.822,0 -1.372,-0.512 -1.372,-1.391 l 0,-4.619 -2.43,0 0,4.684 c 0,2.23 1.477,3.569 3.775,3.569 0.54,0 1.029,-0.07 1.468,-0.202 l -0.001,0.078 c 0,0.88 -0.74,1.273 -1.542,1.273 -0.569,0 -0.891,-0.105 -1.211,-0.656 l -2.58,0 c 0.247,1.81 1.877,2.809 3.741,2.809 2.123,0 3.887,-1.3 3.887,-3.793 l 0,-7.762 -2.377,0 0,0 z"
       inkscape:connector-curvature="0"
       transform="matrix(11.28893,0,0,11.28893,-3115.2715,-5077.9296)"
       id="path1215"
       style="fill:#ffb900" />
    <path
       d="m 337.28,487.283 0,3.715 -2.467,0 0,-8.058 2.375,0 0,1.272 c 0.197,-0.604 0.945,-1.431 1.916,-1.431 l 0.551,0 0,2.52 c 0,0 -0.302,-0.157 -0.853,-0.157 -0.945,0 -1.522,0.577 -1.522,2.139"
       inkscape:connector-curvature="0"
       transform="matrix(11.28893,0,0,11.28893,-3115.2715,-5077.9296)"
       id="path1217"
       style="fill:#ffb900" />
  </g>
</svg>

<?xml version="1.0" encoding="UTF-8" standalone="no"?>
<!-- Created with Inkscape (http://www.inkscape.org/) -->
<svg
   xmlns:dc="http://purl.org/dc/elements/1.1/"
   xmlns:cc="http://web.resource.org/cc/"
   xmlns:rdf="http://www.w3.org/1999/02/22-rdf-syntax-ns#"
   xmlns:svg="http://www.w3.org/2000/svg"
   xmlns="http://www.w3.org/2000/svg"
   xmlns:xlink="http://www.w3.org/1999/xlink"
   xmlns:sodipodi="http://sodipodi.sourceforge.net/DTD/sodipodi-0.dtd"
   xmlns:inkscape="http://www.inkscape.org/namespaces/inkscape"
   width="800"
   height="170"
   id="svg2"
   sodipodi:version="0.32"
   inkscape:version="0.45.1"
   version="1.0">
  <g
     inkscape:label="Layer 1"
     inkscape:groupmode="layer"
     id="layer1"
     transform="translate(-328.07792,-334.09632)">
    <path
       style="fill:#ff6100"
       id="path1179"
       d="M 329.71,489.527 C 328.019,489.517 326.642,488.405 325.911,487.064 C 326.649,485.735 328.031,484.654 329.71,484.654 C 331.42,484.654 332.788,485.726 333.509,487.064 C 332.789,488.405 331.432,489.534 329.71,489.527 M 329.71,482.953 C 327.435,482.953 325.589,484.808 325.589,487.096 C 325.589,489.381 327.435,491.234 329.71,491.234 C 331.987,491.234 333.833,489.381 333.833,487.096 C 333.833,484.808 331.988,482.953 329.71,482.953"
       clip-path="url(#SVGID_46_)"
       transform="matrix(11.28893,0,0,11.28893,-3115.2715,-5077.9296)" />
    <path
       style="fill:#ff6100"
       id="path1181"
       d="M 329.71,489.289 C 330.917,489.289 331.896,488.305 331.896,487.096 C 331.896,485.883 330.917,484.899 329.71,484.899 C 328.505,484.899 327.524,485.883 327.524,487.096 C 327.525,488.304 328.505,489.289 329.71,489.289"
       clip-path="url(#SVGID_46_)"
       transform="matrix(11.28893,0,0,11.28893,-3115.2715,-5077.9296)" />
    <path
       style="fill:#ff6100"
       id="path1183"
       d="M 311.968,482.97 L 315.718,482.97 C 317.309,482.97 318.421,483.95 318.421,484.953 C 318.421,485.704 318.137,486.412 316.565,486.756 C 317.171,486.838 318.824,487.282 318.824,488.861 C 318.824,490.443 317.091,491.211 315.901,491.211 L 311.968,491.211 L 311.968,491.13 L 315.861,491.13 C 316.788,491.13 317.377,490.746 317.377,488.983 C 317.377,487.221 316.73,486.818 315.921,486.797 L 314.712,486.797 L 314.712,486.715 L 315.991,486.715 C 316.516,486.715 317.07,486.635 317.07,484.933 C 317.07,483.233 316.403,483.051 315.7,483.051 L 314.712,483.051 L 314.712,491.13 L 313.22,491.13 L 313.22,483.051 L 311.969,483.051 L 311.969,482.97 L 311.968,482.97 z "
       clip-path="url(#SVGID_46_)"
       transform="matrix(11.28893,0,0,11.28893,-3115.2715,-5077.9296)" />
    <path
       style="fill:#ff6100"
       id="path1185"
       d="M 306.673,487.144 C 306.673,484.025 307.578,482.909 308.65,482.909 C 310.163,482.909 310.989,485.158 311.25,486.029 L 311.25,483.01 C 310.989,483.213 310.869,483.313 310.584,483.313 C 310.302,483.313 309.878,483.171 309.678,483.051 C 309.476,482.93 309.074,482.827 308.67,482.827 C 307.341,482.827 305.02,484.589 305.02,487.143 C 305.02,490.161 307.076,491.456 308.67,491.456 C 309.074,491.456 309.515,491.294 309.719,491.172 C 309.919,491.051 310.302,490.889 310.584,490.889 C 310.869,490.889 310.989,490.992 311.25,491.193 L 311.25,488.156 C 311.027,489.331 310.163,491.376 308.65,491.376 C 308.215,491.376 307.619,491.173 307.347,490.89 C 307.266,490.801 306.673,490.38 306.673,487.144"
       clip-path="url(#SVGID_46_)"
       transform="matrix(11.28893,0,0,11.28893,-3115.2715,-5077.9296)" />
    <path
       style="fill:#ff6100"
       id="path1187"
       d="M 324.199,489.591 C 324.178,490.258 323.67,491.151 322.625,491.128 C 321.576,491.107 320.305,490.32 319.821,488.193 L 319.821,491.069 C 320.022,490.884 320.367,490.562 320.911,490.803 C 321.454,491.046 322.262,491.208 322.625,491.208 C 322.986,491.208 324.984,490.824 325.065,488.515 C 325.083,487.36 324.257,486.774 323.755,486.591 C 323.168,486.369 322.342,486.108 321.859,485.942 C 321.376,485.784 320.588,485.276 320.607,484.342 C 320.628,483.413 321.193,482.907 321.961,482.907 C 322.725,482.907 323.756,483.511 324.278,485.659 L 324.278,482.804 C 323.978,483.069 323.737,483.189 323.552,483.189 C 323.392,483.189 322.923,483.004 322.686,482.932 C 322.422,482.853 322.165,482.819 321.837,482.825 C 321.263,482.833 319.912,483.534 319.82,485.417 C 319.755,486.796 320.769,487.321 321.231,487.482 C 321.634,487.625 322.807,488.049 323.15,488.193 C 323.492,488.335 324.238,488.819 324.199,489.591"
       clip-path="url(#SVGID_46_)"
       transform="matrix(11.28893,0,0,11.28893,-3115.2715,-5077.9296)" />
    <path
       style="fill:#ffb900"
       id="path1189"
       d="M 342.135,485.971 L 345.179,485.971 C 344.891,485.197 344.474,484.829 343.716,484.829 C 342.895,484.83 342.436,485.224 342.135,485.971 M 343.743,482.783 C 346.055,482.783 347.687,484.318 347.687,487.191 C 347.687,487.388 347.7,487.493 347.687,487.677 L 342.044,487.677 C 342.253,488.635 343.011,489.093 343.925,489.093 C 344.721,489.093 345.244,488.53 345.661,487.978 C 345.661,487.978 347.111,488.818 347.556,489.093 C 346.851,490.353 345.493,491.193 343.808,491.193 C 341.338,491.193 339.64,489.684 339.64,486.981 C 339.64,484.541 341.378,482.783 343.743,482.783"
       clip-path="url(#SVGID_46_)"
       transform="matrix(11.28893,0,0,11.28893,-3115.2715,-5077.9296)" />
    <path
       style="fill:#ffb900"
       id="path1191"
       d="M 350.353,486.968 C 350.353,488.083 351.058,489.001 352.182,489.001 C 353.266,489.001 354.166,488.201 354.166,487.033 C 354.166,485.852 353.331,485.039 352.258,485.039 C 351.098,485.04 350.353,485.905 350.353,486.968 M 351.776,482.783 C 352.755,482.783 353.37,483.111 354.088,483.767 L 354.088,482.94 L 356.493,482.94 L 356.493,490.996 L 354.051,490.996 L 354.051,490.209 C 354.051,490.209 353.175,491.193 351.648,491.193 C 349.413,491.193 347.884,489.592 347.884,487.008 C 347.883,484.764 349.542,482.783 351.776,482.783"
       clip-path="url(#SVGID_46_)"
       transform="matrix(11.28893,0,0,11.28893,-3115.2715,-5077.9296)" />
    <rect
       x="917.25812"
       y="351.43613"
       width="27.4321"
       height="113.47633"
       id="rect1193"
       style="fill:#ffb900" />
    <path
       style="fill:#ffb900"
       id="path1203"
       d="M 360.49,482.941 L 362.919,482.941 L 362.919,490.998 L 360.49,490.998 L 360.49,482.941 z M 361.718,479.41 C 362.528,479.41 363.195,480.055 363.195,480.867 C 363.195,481.694 362.528,482.362 361.692,482.362 C 360.895,482.362 360.254,481.72 360.254,480.893 C 360.253,480.08 360.909,479.41 361.718,479.41"
       clip-path="url(#SVGID_48_)"
       transform="matrix(11.28893,0,0,11.28893,-3115.2715,-5077.9296)" />
    <polygon
       points="364.163,490.997 364.163,485.158 363.365,485.158 363.365,482.94 364.163,482.94 364.163,480.946 366.605,480.946 366.605,482.94 367.898,482.94 367.898,485.171 366.605,485.171 366.605,490.997 364.163,490.997 "
       id="polygon1205"
       transform="matrix(11.28893,0,0,11.28893,-3115.2715,-5077.9296)"
       style="fill:#ffb900" />
    <path
       style="fill:#ffb900"
       id="path1215"
       d="M 373.508,482.914 L 373.508,487.598 C 373.508,488.412 373.025,488.924 372.15,488.924 C 371.328,488.924 370.778,488.412 370.778,487.533 L 370.778,482.914 L 368.348,482.914 L 368.348,487.598 C 368.348,489.828 369.825,491.167 372.123,491.167 C 372.663,491.167 373.152,491.097 373.591,490.965 L 373.59,491.043 C 373.59,491.923 372.85,492.316 372.048,492.316 C 371.479,492.316 371.157,492.211 370.837,491.66 L 368.257,491.66 C 368.504,493.47 370.134,494.469 371.998,494.469 C 374.121,494.469 375.885,493.169 375.885,490.676 L 375.885,482.914 L 373.508,482.914 L 373.508,482.914 z "
       clip-path="url(#SVGID_50_)"
       transform="matrix(11.28893,0,0,11.28893,-3115.2715,-5077.9296)" />
    <path
       style="fill:#ffb900"
       id="path1217"
       d="M 337.28,487.283 L 337.28,490.998 L 334.813,490.998 L 334.813,482.94 L 337.188,482.94 L 337.188,484.212 C 337.385,483.608 338.133,482.781 339.104,482.781 L 339.655,482.781 L 339.655,485.301 C 339.655,485.301 339.353,485.144 338.802,485.144 C 337.857,485.144 337.28,485.721 337.28,487.283"
       clip-path="url(#SVGID_50_)"
       transform="matrix(11.28893,0,0,11.28893,-3115.2715,-5077.9296)" />
  </g>
</svg>
